X:5050
T:The First Day of Summer
M:2/4
R:Polka
L:1/8
C:Aidan Crossey
K:G
|:DB BA|DB dB|gd BG|AB/A/ GE|
DB BA|DB dB|gd BG|AB/A/G2:||
|:Bd dc|Bd gd|cA AB|cA Ac|
Bd dc|Bd gd|cA AB|G2 G2:||
